X:3017
T:Christmas Eve
R:Reel
S:Paul Mulvaney[SMTP:Pgmulvaney@AOL.COM], irtrad-l,11/97
N:As played (P O'L much the louder)Paddy Canny and Peter O'Loughlin,
N:Clare (fiddles).  (Follow it with Star of Munster, and you have an
N.easy holiday theme set)
Z:Bernie Stocks
M:4/4
K:G
D3E G3A | ~B2dB ABGB | ABGE DB,DE | G2BG ABGE | DB,DE ~G3A | ~B2dB ABGA |
BAA2 GE~E2
|1 ABGE G3E :|2 ABGE G3A || BABd edeg | abge g2eg | ~a3e ~g3e | dedB ABGA |
BABd edeg | abge g2eg | abge d2BG | ABGE G3A :|| BG~G2 BGBd | eg~g2 egdc |
BG~G2 dGBG
| A2(3.A.A.A ABGA | BG~G2 BGBd | eg~g2 egdg | bgag {a}gedB | ABGE G4 :||


